X: 158
T: Country Farmer
P: Longways for as many as will
%R: reel
B: "The Compleat Country Dancing-Master" printed by John Walsh, London ca. 1740
S: 6: CCDM1 http://imslp.org/wiki/The_Compleat_Country_Dancing-Master_(Various) V.1 p.84 #119 (167)
B: "The Dancing-Master: Containing Directions and Tunes for Dancing" printed by W. Pearson for John Walsh, London ca. 1709
S: 7: DMDfD http://digital.nls.uk/special-collections-of-printed-music/pageturner.cfm?id=89751228 p.325 "F f"
Z: 2013 John Chambers <jc:trillian.mit.edu>
M: C|
L: 1/8
K: F
% - - - - - - - - - - - - - - - - - - - - - - - - -
F2 |\
cBcd c2(BA) | B2G2 A2c2 |\
fefg f2e2 | d4 c2 |][| c2 |\
gfga g2(ab) | a2gf g2ab |
a2gf g2fe | defg e2(dc) |\
f2ef d2ef | g2fg e2fg |\
a2(ga) fgab | g4 f4 |]
% - - - - - - - - - - - - - - - - - - - - - - - - -
%%begintext align
%% The 1st Man cast off, and his Partner follow him .| The 2d
%% Cu. do the same :| The 1st Man being in the Wo. Place,
%% change Place with the 2d Wo. the 2d Man cross over with
%% the 1st Wo. then cast up .| The Hands quite round 'till
%% you are in your Places, then right and left quite round :|
%% [CCDM1]
%%endtext
%%sep 1 1 500
% - - - - - - - - - - - - - - - - - - - - - - - - -
%%begintext align
%% The 1. man cast off, and his Partner follows him .| The 2. cu. does the same :| The 1. man being in
%% the wo. place, change place with the 2. wo. the 2. man cross over with the 1. wo. then cast up .| Hands
%% quite round till you are in your places, then Right and Left quite round :|
%% [DMDfD]
%%endtext
%%sep 1 8 500

%%sep 1 1 500
%%sep 1 1 500
